!!!COM: Schubert, Franz
!!!CNT: Deutscher
!!!TXO: Deutsch
!!!OTL: "Mein!"
!!!OPR: Die schoene Muellerin
!!!LYR: Mu2ller, Wilhelm
!!!OPS: Opus 25
!!!ONM: No. 11
!!!ODT: 1823/
!!NB: Vocal melody only encoded.
**kern	**silbe
*clefG2	*
*k[f#c#]	*
*M2/2	*
*MM[geschwind]	*
=9	=9
{4f#	{Ba2ch-
8d	-lein,
8f#	|
4a	lass
4a	dein
=10	=10
4a	Rau-
8g	-schen
8f#	|
2e}	sein,}
=11	=11
{4g	{Ra2-
8e	-der,
8g	|
4b	stellt
4b	eu'r
=12	=12
4b	Brau-
8a	-sen
8g	|
2f#}	ein,}
=13	=13
{4b	{all'
8g	ihr
8b	|
4dd	mun-
4dd	-tern
=14	=14
4dd	Wald-
8ccn	-vo2-
8b	-ge-
2a}	-lein,}
=15	=15
{4b	{gross
8a	und
8g	|
2f#	klein,
=16	=16
4e	en-
4b	-det
8a#	eu
8b	|
8g	re
8e	|
=17	=17
8d	Me-
8f#	|
8d	-lo-
8f#	|
[2a	dei'n,
=18	=18
4a]}	|}
4r	.
2r	.
=19	=19
{4e	{en-
4b	-det
8a#	eu-
8b	|
8g	-re
8e	|
=20	=20
8d	Me-
8f#	|
8d	-lo-
8f#	|
[2a	-dei'n!
=21	=21
4a]}	|}
4r	.
2r	.
=22	=22
{8e	{Durch
8cc#	|
8a	den
8cc#	|
2dd	Hain
=23	=23
8e	aus
8cc#	|
8a	und
8cc#	|
2dd}	ein,}
=24	=24
{8cc#	{schal-
8a	|
8g#	-le-
8a	|
4e	-heut'
4ee	ein
=25	=25
4dd	Reim
32ee	|
32dd	|
16cc#	al-
8b	|
2a}	-lein,}
=26	=26
{8e	{durch
8cc#	|
8a	den
8cc#	|
2dd	Hain
=27	=27
8e	aus
8cc#	|
8a	und
8cc#	|
2dd}	ein}
=28	=28
{8cc#	{schal-
8a	|
8g#	-le-
8a	|
4e	-heut'
4ee	ein
=29	=29
4dd	Reim
32ee	|
32dd	|
16cc#	al-
8b	|
2a}	-lein:}
=30	=30
{8dd	{Die
8a	|
8a	ge-
8f#	|
8d	lieb-
8f#	|
8f#	-te
8a	|
=31	=31
8dd	Mu2l-
8b	|
8b	-le
8g	|
4e	-rin
4dd	ist
=32	=32
(4.ff#	mein,
8dd)	|
(4.cc#	ist
8a)	|
=33	=33
2.dd}	mein,}
4r	.
=34	=34
{8dd	{die
8a	|
8a	ge-
8f#	|
8d	-lieb-
8f#	|
8f#	-te
8a	|
=35	=35
8dd	Mu2l-
8b	|
8b	-le-
8g	|
4e	-rin
4dd	ist
=36	=36
(4.ff#	mein,
8dd)	|
(4.cc#	ist
8ee)	|
=37	=37
2dd}	mein,}
2r	.
=38	=38
2r	.
{(2dd	{mein,
=39	=39
2.ffn	|
4a)	|
=40	=40
2.b-}	mein.}
4r	.
=41	=41
{4fn	{Fru2h-
4b-	-ling,
4r	.
8b-	sind
8b-	das
=42	=42
4.dd	al-
8dd	-le
4ccn	dei-
4b-	-ne
=43	=43
4.a	Blu2-
8ccn	-me-
4ccn}	-lein?}
4r	.
=44	=44
{4a	{Son-
4ccn	-ne!
4r	.
8ccn	hast
8ccn	du
=45	=45
4.ccn	kei-
8ccn	-nen
4ee-	hel-
8dd	-ler'n
8ccn	|
=46	=46
(4b-	Schein?
4dd)}	|}
2r	.
=47	=47
{4.dd	{Ach!
8dd	so
4ccn	muss
4b-	ich
=48	=48
4.a	ganz
8ee-	al-
2dd}	-lein}
=49	=49
{4.b-	{mit
8b-	dem
8ccn	se-
8b-	|
8a	-li-
8g	-gen
=50	=50
4.a	Wor-
8ee-	-te
(4ee-	mein
4dd)}	|}
=51	=51
{(2ccn	{un-
[2dd-	|
=52	=52
4dd-])	|
4ccn	-ver-
4b-	-stan-
4a}	-den}
=53	=53
{4b-	{in
8ccn	der
8dd	|
8ffn	wei-
8ee-	|
8dd	-ten
8ccn	|
=54	=54
2.b-	Scho2p-
4ccn	-fung
=55	=55
4ccn	sein,
4dd}	|}
2r	.
=56	=56
{(2ccn	{un-
[2dd-	|
=57	=57
4dd-])	|
4ccn	-ver-
4b-	-stan-
4a	-den
=58	=58
4b-	in
8ccn	der
8dd	|
8ffn	wei-
8ee-	|
8dd	-ten
8cc	|
=59	=59
(2b-	Scho2p-
4.dd)	|
8ccn	-fung
=60	=60
2b-}	sein.}
2r	.
=93	=93
{(2.ff#	{mein,
4dd)	|
=94	=94
(4cc#	ist
4a	|
6g	|
6e	|
6a)	|
=95	=95
2d}	mein.}
2r	.
*-	*-
